app/assets/images/icons/active/home-line.svg

<?xml version="1.0" encoding="UTF-8" standalone="no"?>
<svg width="32px" height="232px" viewBox="0 0 32 232" version="1.1" xmlns="http://www.w3.org/2000/svg" xmlns:xlink="http://www.w3.org/1999/xlink" xmlns:sketch="http://www.bohemiancoding.com/sketch/ns">
    <title>home-line</title>
    <description>Created with Sketch (http://www.bohemiancoding.com/sketch)</description>
    <defs></defs>
    <g id="Categories" stroke="none" stroke-width="1" fill="none" fill-rule="evenodd" sketch:type="MSPage">
        <path d="M15.9997269,167.819195 C15.3764897,167.819195 14.7166512,168.305195 14.4970439,168.489195 L4.52219746,175.928195 L4.52219746,185.966195 C4.52219746,187.680195 5.83882432,189.025195 7.51841319,189.025195 L13.8219549,189.025195 L13.8219549,180.718195 C13.8219549,180.369195 14.1096811,180.086195 14.4634928,180.086195 L17.4830926,180.086195 C17.8369043,180.086195 18.1246305,180.369195 18.1246305,180.718195 L18.1246305,189.025195 L24.4810407,189.025195 C26.135212,189.025195 27.4792898,187.702195 27.4792898,186.077195 L27.4792898,175.928195 L17.5268108,168.510195 C17.2096003,168.253195 16.5873797,167.819195 15.9997269,167.819195 L15.9997269,167.819195 L15.9997269,167.819195 L15.9997269,167.819195 Z M25.7264985,186.077195 C25.7264985,186.753195 25.1673134,187.300195 24.4810407,187.300195 L19.8784385,187.300195 L19.8784385,180.718195 C19.8784385,179.419195 18.8037863,178.360195 17.4830926,178.360195 L14.4634928,178.360195 C13.1427991,178.360195 12.0671302,179.419195 12.0671302,180.718195 L12.0671302,187.300195 L7.51841319,187.300195 C6.80977309,187.300195 6.27600544,186.727195 6.27600544,185.966195 L6.27600544,176.786195 L15.5869466,169.837195 C15.6967503,169.747195 15.8777229,169.628195 15.9956601,169.568195 C16.111564,169.626195 16.2915199,169.743195 16.4409749,169.862195 L25.7264985,176.786195 L25.7264985,186.077195 Z M30.9808056,175.139195 C30.9665718,175.040195 30.9330207,174.942195 30.881169,174.854195 C30.8171168,174.738195 30.7337474,174.634195 30.6229271,174.551195 L27.2495156,172.049195 L27.2495156,168.028195 C27.2495156,167.014195 26.4432722,166.186195 25.4499561,166.186195 L23.3596203,166.186195 C22.4293395,166.186195 21.6718978,166.913195 21.5783614,167.839195 L16.9533918,164.405195 C16.657532,164.186195 16.2559354,164.030195 15.9702426,164.025195 C15.6011804,164.025195 15.2026339,164.291195 15.0491122,164.405195 L1.37652679,174.551195 C1.17420343,174.702195 1.0450825,174.921195 1.00949799,175.169195 C0.973913477,175.417195 1.0389823,175.664195 1.19352074,175.863195 C1.28502376,175.983195 1.4110946,176.065195 1.54529904,176.126195 C1.67238657,176.208195 1.81370791,176.265195 1.96316285,176.265195 C2.1278683,176.265195 2.29257374,176.214195 2.43287838,176.109195 L2.5070975,176.054195 C2.5131977,176.050195 2.52031461,176.050195 2.52641481,176.045195 L15.9997269,166.046195 L29.4740558,176.046195 C29.6397779,176.169195 29.8400679,176.233195 30.0474747,176.233195 C30.348418,176.233195 30.6259772,176.098195 30.8079665,175.863195 C30.962505,175.663195 31.0265571,175.417195 30.9899559,175.169195 C30.9889392,175.158195 30.982839,175.149195 30.9808056,175.139195 C30.9808056,175.139195 30.982839,175.149195 30.9808056,175.139195 Z M30.9808056,175.139195" id="home-line--lp-blue" fill="#1D4F8D" sketch:type="MSShapeGroup"></path>
        <path d="M15.9997269,127.819195 C15.3764897,127.819195 14.7166512,128.305195 14.4970439,128.489195 L4.52219746,135.928195 L4.52219746,145.966195 C4.52219746,147.680195 5.83882432,149.025195 7.51841319,149.025195 L13.8219549,149.025195 L13.8219549,140.718195 C13.8219549,140.369195 14.1096811,140.086195 14.4634928,140.086195 L17.4830926,140.086195 C17.8369043,140.086195 18.1246305,140.369195 18.1246305,140.718195 L18.1246305,149.025195 L24.4810407,149.025195 C26.135212,149.025195 27.4792898,147.702195 27.4792898,146.077195 L27.4792898,135.928195 L17.5268108,128.510195 C17.2096003,128.253195 16.5873797,127.819195 15.9997269,127.819195 L15.9997269,127.819195 L15.9997269,127.819195 L15.9997269,127.819195 Z M25.7264985,146.077195 C25.7264985,146.753195 25.1673134,147.300195 24.4810407,147.300195 L19.8784385,147.300195 L19.8784385,140.718195 C19.8784385,139.419195 18.8037863,138.360195 17.4830926,138.360195 L14.4634928,138.360195 C13.1427991,138.360195 12.0671302,139.419195 12.0671302,140.718195 L12.0671302,147.300195 L7.51841319,147.300195 C6.80977309,147.300195 6.27600544,146.727195 6.27600544,145.966195 L6.27600544,136.786195 L15.5869466,129.837195 C15.6967503,129.747195 15.8777229,129.628195 15.9956601,129.568195 C16.111564,129.626195 16.2915199,129.743195 16.4409749,129.862195 L25.7264985,136.786195 L25.7264985,146.077195 Z M30.9808056,135.139195 C30.9665718,135.040195 30.9330207,134.942195 30.881169,134.854195 C30.8171168,134.738195 30.7337474,134.634195 30.6229271,134.551195 L27.2495156,132.049195 L27.2495156,128.028195 C27.2495156,127.014195 26.4432722,126.186195 25.4499561,126.186195 L23.3596203,126.186195 C22.4293395,126.186195 21.6718978,126.913195 21.5783614,127.839195 L16.9533918,124.405195 C16.657532,124.186195 16.2559354,124.030195 15.9702426,124.025195 C15.6011804,124.025195 15.2026339,124.291195 15.0491122,124.405195 L1.37652679,134.551195 C1.17420343,134.702195 1.0450825,134.921195 1.00949799,135.169195 C0.973913477,135.417195 1.0389823,135.664195 1.19352074,135.863195 C1.28502376,135.983195 1.4110946,136.065195 1.54529904,136.126195 C1.67238657,136.208195 1.81370791,136.265195 1.96316285,136.265195 C2.1278683,136.265195 2.29257374,136.214195 2.43287838,136.109195 L2.5070975,136.054195 C2.5131977,136.050195 2.52031461,136.050195 2.52641481,136.045195 L15.9997269,126.046195 L29.4740558,136.046195 C29.6397779,136.169195 29.8400679,136.233195 30.0474747,136.233195 C30.348418,136.233195 30.6259772,136.098195 30.8079665,135.863195 C30.962505,135.663195 31.0265571,135.417195 30.9899559,135.169195 C30.9889392,135.158195 30.982839,135.149195 30.9808056,135.139195 C30.9808056,135.139195 30.982839,135.149195 30.9808056,135.139195 Z M30.9808056,135.139195" id="home-line--white" fill="#FFFFFF" sketch:type="MSShapeGroup"></path>
        <path d="M15.9997269,87.8191953 C15.3764897,87.8191953 14.7166512,88.3051953 14.4970439,88.4891953 L4.52219746,95.9281953 L4.52219746,105.966195 C4.52219746,107.680195 5.83882432,109.025195 7.51841319,109.025195 L13.8219549,109.025195 L13.8219549,100.718195 C13.8219549,100.369195 14.1096811,100.086195 14.4634928,100.086195 L17.4830926,100.086195 C17.8369043,100.086195 18.1246305,100.369195 18.1246305,100.718195 L18.1246305,109.025195 L24.4810407,109.025195 C26.135212,109.025195 27.4792898,107.702195 27.4792898,106.077195 L27.4792898,95.9281953 L17.5268108,88.5101953 C17.2096003,88.2531953 16.5873797,87.8191953 15.9997269,87.8191953 L15.9997269,87.8191953 L15.9997269,87.8191953 L15.9997269,87.8191953 Z M25.7264985,106.077195 C25.7264985,106.753195 25.1673134,107.300195 24.4810407,107.300195 L19.8784385,107.300195 L19.8784385,100.718195 C19.8784385,99.4191953 18.8037863,98.3601953 17.4830926,98.3601953 L14.4634928,98.3601953 C13.1427991,98.3601953 12.0671302,99.4191953 12.0671302,100.718195 L12.0671302,107.300195 L7.51841319,107.300195 C6.80977309,107.300195 6.27600544,106.727195 6.27600544,105.966195 L6.27600544,96.7861953 L15.5869466,89.8371953 C15.6967503,89.7471953 15.8777229,89.6281953 15.9956601,89.5681953 C16.111564,89.6261953 16.2915199,89.7431953 16.4409749,89.8621953 L25.7264985,96.7861953 L25.7264985,106.077195 Z M30.9808056,95.1391953 C30.9665718,95.0401953 30.9330207,94.9421953 30.881169,94.8541953 C30.8171168,94.7381953 30.7337474,94.6341953 30.6229271,94.5511953 L27.2495156,92.0491953 L27.2495156,88.0281953 C27.2495156,87.0141953 26.4432722,86.1861953 25.4499561,86.1861953 L23.3596203,86.1861953 C22.4293395,86.1861953 21.6718978,86.9131953 21.5783614,87.8391953 L16.9533918,84.4051953 C16.657532,84.1861953 16.2559354,84.0301953 15.9702426,84.0251953 C15.6011804,84.0251953 15.2026339,84.2911953 15.0491122,84.4051953 L1.37652679,94.5511953 C1.17420343,94.7021953 1.0450825,94.9211953 1.00949799,95.1691953 C0.973913477,95.4171953 1.0389823,95.6641953 1.19352074,95.8631953 C1.28502376,95.9831953 1.4110946,96.0651953 1.54529904,96.1261953 C1.67238657,96.2081953 1.81370791,96.2651953 1.96316285,96.2651953 C2.1278683,96.2651953 2.29257374,96.2141953 2.43287838,96.1091953 L2.5070975,96.0541953 C2.5131977,96.0501953 2.52031461,96.0501953 2.52641481,96.0451953 L15.9997269,86.0461953 L29.4740558,96.0461953 C29.6397779,96.1691953 29.8400679,96.2331953 30.0474747,96.2331953 C30.348418,96.2331953 30.6259772,96.0981953 30.8079665,95.8631953 C30.962505,95.6631953 31.0265571,95.4171953 30.9899559,95.1691953 C30.9889392,95.1581953 30.982839,95.1491953 30.9808056,95.1391953 C30.9808056,95.1391953 30.982839,95.1491953 30.9808056,95.1391953 Z M30.9808056,95.1391953" id="home-line--subdued-grey" fill="#E5EDF5" sketch:type="MSShapeGroup"></path>
        <path d="M15.9997269,47.8191953 C15.3764897,47.8191953 14.7166512,48.3051953 14.4970439,48.4891953 L4.52219746,55.9281953 L4.52219746,65.9661953 C4.52219746,67.6801953 5.83882432,69.0251953 7.51841319,69.0251953 L13.8219549,69.0251953 L13.8219549,60.7181953 C13.8219549,60.3691953 14.1096811,60.0861953 14.4634928,60.0861953 L17.4830926,60.0861953 C17.8369043,60.0861953 18.1246305,60.3691953 18.1246305,60.7181953 L18.1246305,69.0251953 L24.4810407,69.0251953 C26.135212,69.0251953 27.4792898,67.7021953 27.4792898,66.0771953 L27.4792898,55.9281953 L17.5268108,48.5101953 C17.2096003,48.2531953 16.5873797,47.8191953 15.9997269,47.8191953 L15.9997269,47.8191953 L15.9997269,47.8191953 L15.9997269,47.8191953 Z M25.7264985,66.0771953 C25.7264985,66.7531953 25.1673134,67.3001953 24.4810407,67.3001953 L19.8784385,67.3001953 L19.8784385,60.7181953 C19.8784385,59.4191953 18.8037863,58.3601953 17.4830926,58.3601953 L14.4634928,58.3601953 C13.1427991,58.3601953 12.0671302,59.4191953 12.0671302,60.7181953 L12.0671302,67.3001953 L7.51841319,67.3001953 C6.80977309,67.3001953 6.27600544,66.7271953 6.27600544,65.9661953 L6.27600544,56.7861953 L15.5869466,49.8371953 C15.6967503,49.7471953 15.8777229,49.6281953 15.9956601,49.5681953 C16.111564,49.6261953 16.2915199,49.7431953 16.4409749,49.8621953 L25.7264985,56.7861953 L25.7264985,66.0771953 Z M30.9808056,55.1391953 C30.9665718,55.0401953 30.9330207,54.9421953 30.881169,54.8541953 C30.8171168,54.7381953 30.7337474,54.6341953 30.6229271,54.5511953 L27.2495156,52.0491953 L27.2495156,48.0281953 C27.2495156,47.0141953 26.4432722,46.1861953 25.4499561,46.1861953 L23.3596203,46.1861953 C22.4293395,46.1861953 21.6718978,46.9131953 21.5783614,47.8391953 L16.9533918,44.4051953 C16.657532,44.1861953 16.2559354,44.0301953 15.9702426,44.0251953 C15.6011804,44.0251953 15.2026339,44.2911953 15.0491122,44.4051953 L1.37652679,54.5511953 C1.17420343,54.7021953 1.0450825,54.9211953 1.00949799,55.1691953 C0.973913477,55.4171953 1.0389823,55.6641953 1.19352074,55.8631953 C1.28502376,55.9831953 1.4110946,56.0651953 1.54529904,56.1261953 C1.67238657,56.2081953 1.81370791,56.2651953 1.96316285,56.2651953 C2.1278683,56.2651953 2.29257374,56.2141953 2.43287838,56.1091953 L2.5070975,56.0541953 C2.5131977,56.0501953 2.52031461,56.0501953 2.52641481,56.0451953 L15.9997269,46.0461953 L29.4740558,56.0461953 C29.6397779,56.1691953 29.8400679,56.2331953 30.0474747,56.2331953 C30.348418,56.2331953 30.6259772,56.0981953 30.8079665,55.8631953 C30.962505,55.6631953 31.0265571,55.4171953 30.9899559,55.1691953 C30.9889392,55.1581953 30.982839,55.1491953 30.9808056,55.1391953 C30.9808056,55.1391953 30.982839,55.1491953 30.9808056,55.1391953 Z M30.9808056,55.1391953" id="home-line--body-grey" fill="#67737B" sketch:type="MSShapeGroup"></path>
        <path d="M15.9997269,7.81919531 C15.3764897,7.81919531 14.7166512,8.30519531 14.4970439,8.48919531 L4.52219746,15.9281953 L4.52219746,25.9661953 C4.52219746,27.6801953 5.83882432,29.0251953 7.51841319,29.0251953 L13.8219549,29.0251953 L13.8219549,20.7181953 C13.8219549,20.3691953 14.1096811,20.0861953 14.4634928,20.0861953 L17.4830926,20.0861953 C17.8369043,20.0861953 18.1246305,20.3691953 18.1246305,20.7181953 L18.1246305,29.0251953 L24.4810407,29.0251953 C26.135212,29.0251953 27.4792898,27.7021953 27.4792898,26.0771953 L27.4792898,15.9281953 L17.5268108,8.51019531 C17.2096003,8.25319531 16.5873797,7.81919531 15.9997269,7.81919531 L15.9997269,7.81919531 L15.9997269,7.81919531 L15.9997269,7.81919531 Z M25.7264985,26.0771953 C25.7264985,26.7531953 25.1673134,27.3001953 24.4810407,27.3001953 L19.8784385,27.3001953 L19.8784385,20.7181953 C19.8784385,19.4191953 18.8037863,18.3601953 17.4830926,18.3601953 L14.4634928,18.3601953 C13.1427991,18.3601953 12.0671302,19.4191953 12.0671302,20.7181953 L12.0671302,27.3001953 L7.51841319,27.3001953 C6.80977309,27.3001953 6.27600544,26.7271953 6.27600544,25.9661953 L6.27600544,16.7861953 L15.5869466,9.83719531 C15.6967503,9.74719531 15.8777229,9.62819531 15.9956601,9.56819531 C16.111564,9.62619531 16.2915199,9.74319531 16.4409749,9.86219531 L25.7264985,16.7861953 L25.7264985,26.0771953 Z M30.9808056,15.1391953 C30.9665718,15.0401953 30.9330207,14.9421953 30.881169,14.8541953 C30.8171168,14.7381953 30.7337474,14.6341953 30.6229271,14.5511953 L27.2495156,12.0491953 L27.2495156,8.02819531 C27.2495156,7.01419531 26.4432722,6.18619531 25.4499561,6.18619531 L23.3596203,6.18619531 C22.4293395,6.18619531 21.6718978,6.91319531 21.5783614,7.83919531 L16.9533918,4.40519531 C16.657532,4.18619531 16.2559354,4.03019531 15.9702426,4.02519531 C15.6011804,4.02519531 15.2026339,4.29119531 15.0491122,4.40519531 L1.37652679,14.5511953 C1.17420343,14.7021953 1.0450825,14.9211953 1.00949799,15.1691953 C0.973913477,15.4171953 1.0389823,15.6641953 1.19352074,15.8631953 C1.28502376,15.9831953 1.4110946,16.0651953 1.54529904,16.1261953 C1.67238657,16.2081953 1.81370791,16.2651953 1.96316285,16.2651953 C2.1278683,16.2651953 2.29257374,16.2141953 2.43287838,16.1091953 L2.5070975,16.0541953 C2.5131977,16.0501953 2.52031461,16.0501953 2.52641481,16.0451953 L15.9997269,6.04619531 L29.4740558,16.0461953 C29.6397779,16.1691953 29.8400679,16.2331953 30.0474747,16.2331953 C30.348418,16.2331953 30.6259772,16.0981953 30.8079665,15.8631953 C30.962505,15.6631953 31.0265571,15.4171953 30.9899559,15.1691953 C30.9889392,15.1581953 30.982839,15.1491953 30.9808056,15.1391953 C30.9808056,15.1391953 30.982839,15.1491953 30.9808056,15.1391953 Z M30.9808056,15.1391953" id="home-line--title-grey" fill="#3A434E" sketch:type="MSShapeGroup"></path>
    </g>
</svg>

<svg width="32" height="232" viewBox="0 0 32 232" xmlns="http://www.w3.org/2000/svg" xmlns:sketch="http://www.bohemiancoding.com/sketch/ns"><title>home-line</title><g sketch:type="MSPage" fill="none"><path d="M16 167.819c-.623 0-1.283.486-1.503.67l-9.975 7.439v10.038c0 1.714 1.317 3.059 2.996 3.059h6.304v-8.307c0-.349.288-.632.642-.632h3.02c.354 0 .642.283.642.632v8.307h6.356c1.654 0 2.998-1.323 2.998-2.948v-10.149l-9.952-7.418c-.317-.257-.939-.691-1.527-.691zm9.727 18.258c0 .676-.559 1.223-1.245 1.223h-4.603v-6.582c0-1.299-1.075-2.358-2.395-2.358h-3.02c-1.321 0-2.396 1.059-2.396 2.358v6.582h-4.549c-.709 0-1.242-.573-1.242-1.334v-9.18l9.311-6.949c.11-.09.291-.209.409-.269.116.058.296.175.445.294l9.286 6.924v9.291zm5.254-10.938c-.014-.099-.048-.197-.1-.285-.064-.116-.147-.22-.258-.303l-3.373-2.502v-4.021c0-1.014-.806-1.842-1.8-1.842h-2.09c-.93 0-1.688.727-1.781 1.653l-4.625-3.434c-.296-.219-.697-.375-.983-.38-.369 0-.768.266-.921.38l-13.673 10.146c-.202.151-.331.37-.367.618-.036.248.029.495.184.694.092.12.218.202.352.263.127.082.268.139.418.139.165 0 .329-.051.47-.156l.074-.055.019-.009 13.473-9.999 13.474 10c.166.123.366.187.573.187.301 0 .579-.135.76-.37.155-.2.219-.446.182-.694l-.009-.03zm0 0" fill="#1D4F8D" sketch:type="MSShapeGroup"/><path d="M16 127.819c-.623 0-1.283.486-1.503.67l-9.975 7.439v10.038c0 1.714 1.317 3.059 2.996 3.059h6.304v-8.307c0-.349.288-.632.642-.632h3.02c.354 0 .642.283.642.632v8.307h6.356c1.654 0 2.998-1.323 2.998-2.948v-10.149l-9.952-7.418c-.317-.257-.939-.691-1.527-.691zm9.727 18.258c0 .676-.559 1.223-1.245 1.223h-4.603v-6.582c0-1.299-1.075-2.358-2.395-2.358h-3.02c-1.321 0-2.396 1.059-2.396 2.358v6.582h-4.549c-.709 0-1.242-.573-1.242-1.334v-9.18l9.311-6.949c.11-.09.291-.209.409-.269.116.058.296.175.445.294l9.286 6.924v9.291zm5.254-10.938c-.014-.099-.048-.197-.1-.285-.064-.116-.147-.22-.258-.303l-3.373-2.502v-4.021c0-1.014-.806-1.842-1.8-1.842h-2.09c-.93 0-1.688.727-1.781 1.653l-4.625-3.434c-.296-.219-.697-.375-.983-.38-.369 0-.768.266-.921.38l-13.673 10.146c-.202.151-.331.37-.367.618-.036.248.029.495.184.694.092.12.218.202.352.263.127.082.268.139.418.139.165 0 .329-.051.47-.156l.074-.055.019-.009 13.473-9.999 13.474 10c.166.123.366.187.573.187.301 0 .579-.135.76-.37.155-.2.219-.446.182-.694l-.009-.03zm0 0" fill="#fff" sketch:type="MSShapeGroup"/><path d="M16 87.819c-.623 0-1.283.486-1.503.67l-9.975 7.439v10.038c0 1.714 1.317 3.059 2.996 3.059h6.304v-8.307c0-.349.288-.632.642-.632h3.02c.354 0 .642.283.642.632v8.307h6.356c1.654 0 2.998-1.323 2.998-2.948v-10.149l-9.952-7.418c-.317-.257-.939-.691-1.527-.691zm9.727 18.258c0 .676-.559 1.223-1.245 1.223h-4.603v-6.582c0-1.299-1.075-2.358-2.395-2.358h-3.02c-1.321 0-2.396 1.059-2.396 2.358v6.582h-4.549c-.709 0-1.242-.573-1.242-1.334v-9.18l9.311-6.949c.11-.09.291-.209.409-.269.116.058.296.175.445.294l9.286 6.924v9.291zm5.254-10.938c-.014-.099-.048-.197-.1-.285-.064-.116-.147-.22-.258-.303l-3.373-2.502v-4.021c0-1.014-.806-1.842-1.8-1.842h-2.09c-.93 0-1.688.727-1.781 1.653l-4.625-3.434c-.296-.219-.697-.375-.983-.38-.369 0-.768.266-.921.38l-13.673 10.146c-.202.151-.331.37-.367.618-.036.248.029.495.184.694.092.12.218.202.352.263.127.082.268.139.418.139.165 0 .329-.051.47-.156l.074-.055.019-.009 13.473-9.999 13.474 10c.166.123.366.187.573.187.301 0 .579-.135.76-.37.155-.2.219-.446.182-.694l-.009-.03zm0 0" fill="#E5EDF5" sketch:type="MSShapeGroup"/><path d="M16 47.819c-.623 0-1.283.486-1.503.67l-9.975 7.439v10.038c0 1.714 1.317 3.059 2.996 3.059h6.304v-8.307c0-.349.288-.632.642-.632h3.02c.354 0 .642.283.642.632v8.307h6.356c1.654 0 2.998-1.323 2.998-2.948v-10.149l-9.952-7.418c-.317-.257-.939-.691-1.527-.691zm9.727 18.258c0 .676-.559 1.223-1.245 1.223h-4.603v-6.582c0-1.299-1.075-2.358-2.395-2.358h-3.02c-1.321 0-2.396 1.059-2.396 2.358v6.582h-4.549c-.709 0-1.242-.573-1.242-1.334v-9.18l9.311-6.949c.11-.09.291-.209.409-.269.116.058.296.175.445.294l9.286 6.924v9.291zm5.254-10.938c-.014-.099-.048-.197-.1-.285-.064-.116-.147-.22-.258-.303l-3.373-2.502v-4.021c0-1.014-.806-1.842-1.8-1.842h-2.09c-.93 0-1.688.727-1.781 1.653l-4.625-3.434c-.296-.219-.697-.375-.983-.38-.369 0-.768.266-.921.38l-13.673 10.146c-.202.151-.331.37-.367.618-.036.248.029.495.184.694.092.12.218.202.352.263.127.082.268.139.418.139.165 0 .329-.051.47-.156l.074-.055.019-.009 13.473-9.999 13.474 10c.166.123.366.187.573.187.301 0 .579-.135.76-.37.155-.2.219-.446.182-.694l-.009-.03zm0 0" fill="#67737B" sketch:type="MSShapeGroup"/><path d="M16 7.819c-.623 0-1.283.486-1.503.67l-9.975 7.439v10.038c0 1.714 1.317 3.059 2.996 3.059h6.304v-8.307c0-.349.288-.632.642-.632h3.02c.354 0 .642.283.642.632v8.307h6.356c1.654 0 2.998-1.323 2.998-2.948v-10.149l-9.952-7.418c-.317-.257-.939-.691-1.527-.691zm9.727 18.258c0 .676-.559 1.223-1.245 1.223h-4.603v-6.582c0-1.299-1.075-2.358-2.395-2.358h-3.02c-1.321 0-2.396 1.059-2.396 2.358v6.582h-4.549c-.709 0-1.242-.573-1.242-1.334v-9.18l9.311-6.949c.11-.09.291-.209.409-.269.116.058.296.175.445.294l9.286 6.924v9.291zm5.254-10.938c-.014-.099-.048-.197-.1-.285-.064-.116-.147-.22-.258-.303l-3.373-2.502v-4.021c0-1.014-.806-1.842-1.8-1.842h-2.09c-.93 0-1.688.727-1.781 1.653l-4.625-3.434c-.296-.219-.697-.375-.983-.38-.369 0-.768.266-.921.38l-13.673 10.146c-.202.151-.331.37-.367.618-.036.248.029.495.184.694.092.12.218.202.352.263.127.082.268.139.418.139.165 0 .329-.051.47-.156l.074-.055.019-.009 13.473-9.999 13.474 10c.166.123.366.187.573.187.301 0 .579-.135.76-.37.155-.2.219-.446.182-.694l-.009-.03zm0 0" fill="#3A434E" sketch:type="MSShapeGroup"/></g></svg>
